icons/young_people_fill.svg

<svg width="48" height="48" viewBox="0 0 48 48" fill="none" xmlns="http://www.w3.org/2000/svg">
<path fill-rule="evenodd" clip-rule="evenodd" d="M33 16C35.2091 16 37 14.2091 37 12C37 9.79086 35.2091 8 33 8C30.7909 8 29 9.79086 29 12C29 14.2091 30.7909 16 33 16ZM38.307 29.2709C38.8866 31.1591 39.6151 33.1434 40.0692 34.3392C40.2906 34.9219 39.9372 35.5675 39.3241 35.6802C34.786 36.5147 31.6606 36.4934 26.7302 35.6673C26.0989 35.5615 25.7332 34.8923 25.9689 34.2972C26.4402 33.1071 27.1768 31.1642 27.749 29.2772C25.9332 29.0975 24.5 26.9829 24.5 24.4007C24.5 21.7006 26.067 19.5118 28 19.5118L28.0126 19.5117C28.0043 19.4518 28 19.3905 28 19.3283C28 18.5947 28.5947 18 29.3283 18H36.6717C37.4053 18 38 18.5947 38 19.3283C38 19.3905 37.9957 19.4518 37.9874 19.5117H38C39.933 19.5117 41.5 21.7005 41.5 24.4006C41.5 26.9562 40.0962 29.0537 38.307 29.2709ZM29.9625 23.5086C30.3666 22.6074 30.5 21.2493 30.5 19.5001H32.5C32.5 21.2508 32.3834 22.9979 31.7875 24.3269C31.4785 25.0159 31.0248 25.6312 30.3626 26.0674C29.6992 26.5045 28.9042 26.7105 28 26.7105V24.7105C28.5958 24.7105 28.9883 24.5778 29.2624 24.3972C29.5377 24.2158 29.7715 23.9347 29.9625 23.5086ZM35.5 19.5C35.5 21.2492 35.6334 22.6074 36.0375 23.5086C36.2285 23.9347 36.4623 24.2158 36.7376 24.3972C37.0117 24.5777 37.4042 24.7105 38 24.7105V26.7105C37.0958 26.7105 36.3008 26.5044 35.6374 26.0673C34.9752 25.6311 34.5215 25.0159 34.2125 24.3269C33.6166 22.9979 33.5 21.2508 33.5 19.5H35.5Z" fill="black"/>
<path fill-rule="evenodd" clip-rule="evenodd" d="M28.5 37.1515V38.4999C28.5 39.2521 29.0571 39.8879 29.8028 39.9868C30.5485 40.0857 31.2521 39.617 31.4482 38.8908L31.8435 37.4263C30.7614 37.3897 29.6624 37.2985 28.5 37.1515ZM35.1411 37.3695L35.5518 38.8908C35.7479 39.617 36.4515 40.0857 37.1972 39.9868C37.9429 39.8879 38.5 39.2521 38.5 38.4999V37C37.3214 37.1739 36.2165 37.2975 35.1411 37.3695Z" fill="black"/>
<path fill-rule="evenodd" clip-rule="evenodd" d="M14.445 16C16.6542 16 18.445 14.2091 18.445 12C18.445 9.79086 16.6542 8 14.445 8C12.2359 8 10.445 9.79086 10.445 12C10.445 14.2091 12.2359 16 14.445 16ZM18.1243 39.9961C19.1785 39.9305 20 39.0563 20 38V29.2986C21.9738 28.9982 23.5012 26.9405 23.5012 24.4467C23.5012 21.8777 21.8801 19.7714 19.82 19.5725C19.9335 19.4103 20 19.2129 20 19C20 18.4477 19.5523 18 19 18H11C10.4477 18 10 18.4477 10 19C10 19.213 10.0666 19.4104 10.1801 19.5726C8.12046 19.7722 6.5 21.8781 6.5 24.4467C6.5 26.94 8.0268 28.9974 10 29.2984V38C10 39.0547 10.8191 39.9282 11.8717 39.9959C12.9243 40.0636 13.8485 39.3022 13.9835 38.2561L14.7913 32H15.2345L16.0154 38.2481C16.1465 39.2962 17.07 40.0618 18.1243 39.9961ZM11.5285 23.6689C11.9413 22.8165 12.1059 21.4677 12.1059 19.5571H14.1059C14.1059 21.4761 13.959 23.2388 13.3286 24.5406C13.0001 25.219 12.5281 25.7998 11.863 26.2021C11.2019 26.6019 10.4245 26.7802 9.55611 26.7802V24.7802C10.1511 24.7802 10.5491 24.6594 10.828 24.4907C11.1029 24.3245 11.3355 24.0676 11.5285 23.6689ZM17.6745 19.5571C17.6745 21.4677 17.8391 22.8165 18.2519 23.6689C18.445 24.0676 18.6776 24.3245 18.9524 24.4907C19.2313 24.6594 19.6293 24.7802 20.2243 24.7802V26.7802C19.3559 26.7802 18.5785 26.6019 17.9174 26.2021C17.2523 25.7998 16.7803 25.219 16.4518 24.5406C15.8214 23.2388 15.6745 21.4761 15.6745 19.5571H17.6745Z" fill="black"/>
</svg>

<svg
  xmlns="http://www.w3.org/2000/svg"
  width="24"
  height="24"
  viewBox="0 0 24 24"
  fill="none"
  stroke="currentColor"
  stroke-width="2"
  stroke-linecap="round"
  stroke-linejoin="round"
>
  <path
    fill-rule="evenodd"
    d="M33 16a4 4 0 1 0 0-8 4 4 0 0 0 0 8m5.307 13.27c.58 1.89 1.308 3.873 1.762 5.07a1 1 0 0 1-.745 1.34c-4.538.835-7.663.813-12.594-.013a1.01 1.01 0 0 1-.761-1.37c.471-1.19 1.208-3.133 1.78-5.02-1.816-.18-3.249-2.294-3.249-4.876 0-2.7 1.567-4.89 3.5-4.89h.013A1.328 1.328 0 0 1 29.329 18h7.343a1.328 1.328 0 0 1 1.315 1.513H38c1.933 0 3.5 2.189 3.5 4.889 0 2.555-1.404 4.653-3.193 4.87m-8.345-5.761c.405-.902.538-2.26.538-4.009h2c0 1.75-.117 3.498-.712 4.827-.31.689-.763 1.304-1.425 1.74-.664.438-1.459.643-2.363.643v-2c.596 0 .988-.132 1.262-.313.276-.181.51-.462.7-.888M35.5 19.5c0 1.75.133 3.107.538 4.009.19.426.424.707.7.888.274.18.666.314 1.262.314v2c-.904 0-1.7-.207-2.363-.644-.662-.436-1.115-1.051-1.425-1.74-.595-1.33-.712-3.076-.712-4.827z"
    clip-rule="evenodd"
  />
  <path
    fill-rule="evenodd"
    d="M28.5 37.152V38.5a1.5 1.5 0 0 0 2.948.39l.395-1.464a36 36 0 0 1-3.343-.275m6.641.218.41 1.52a1.5 1.5 0 0 0 2.949-.39V37a42 42 0 0 1-3.359.37"
    clip-rule="evenodd"
  />
  <path
    fill-rule="evenodd"
    d="M14.445 16a4 4 0 1 0 0-8 4 4 0 0 0 0 8m3.68 23.996A2 2 0 0 0 20 38v-8.701c1.974-.3 3.501-2.358 3.501-4.852 0-2.57-1.62-4.676-3.681-4.874A1 1 0 0 0 19 18h-8a1 1 0 0 0-.82 1.573c-2.06.2-3.68 2.305-3.68 4.874 0 2.493 1.527 4.55 3.5 4.851V38a2 2 0 0 0 3.983.256L14.792 32h.444l.78 6.248a2 2 0 0 0 2.11 1.748M11.527 23.67c.413-.852.578-2.201.578-4.112h2c0 1.92-.147 3.682-.777 4.984-.329.678-.8 1.259-1.466 1.661-.661.4-1.438.578-2.307.578v-2c.595 0 .993-.12 1.272-.29.275-.165.508-.422.7-.821m6.146-4.112c0 1.91.165 3.26.578 4.112.193.399.426.656.7.822.28.168.677.29 1.272.29v2c-.868 0-1.646-.18-2.307-.579-.665-.402-1.137-.983-1.465-1.661-.63-1.302-.778-3.065-.778-4.984z"
    clip-rule="evenodd"
  />
</svg>
